!!!OTL: DU! DU! LIEGST MIR IM HERZEN
!!!ARE: Europa, Mitteleuropa, Deutschland, Schwaben
!!!SCT: Z0264
!!!YEM: Copyright 1995, estate of Helmut Schaffrath.
**kern
*ICvox
*Ivox
*M3/8
*k[f#]
*G:
{4b
8r
=1
4b
8r
=2
8b
8a
8b
=3
8dd
8cc#
8cc}
=4
{4a
8r
=5
4a
8r
=6
8a
8b
8cc
=7
4b
8r}
=8
{4b
8r
=9
4b
8r
=10
8b
8a
8b
=11
8dd
8cc#
8cc}
=12
{8a
8a
8a
=13
8b
8b
8a
=14
4g
8r}
=15
{4dd
8r
=16
8dd
8cc#
8cc
=17
4b
8r}
=18
{8a
8a
8a
=19
8cc
8b
8a
=20
4g
8r}
==
!!!AGN: lyrisches Lied, Romanze
!!!ONB: ESAC (Essen Associative Code) Database: ZUCCAL
!!!AMT: simple triple
!!!AIN: vox
!!!EED: Helmut Schaffrath
!!!EEV: 1.0
*-
